X:2
T:The Boys of Bellanaleck
R:reel
C:Jim McGraw
O:Co. Fermanagh, Ireland
S:http://www.cranfordpub.com/recordings/mcgraw.htm
D:Melodious Accord, Jim McGraw
Z:psc
H:I thought this was a good title for a tune as it rolls easily off the tongue and what better boys than the world famous McConnell brothers from Bellanaleck who have given traditional music from Fermanagh its present elevated status.
L:1/8
Q:399
M:C|
K:G
BG ~G2 DGBG|AGFE DEFD|DG ~G2 FGAB|cdfa gedc|
BG ~G2 DGBG|AGFE D3B,|CE ~E2 DFAB|[1cAFA GBdc:|[2cAFA G2||
|:a2|bagb agfa|gfeg fedB|~c3 e gceg|abag fd d2|
bg ~g2 af ~f2|gfeg fedB|~c3 e gceg|agfa g2 A2|
BAGB AGFA|GFEG FEDB,|~C3 E GCEG|ABAG FD D2|
BG ~G2 AF ~F2|GFEG FEDB,|~C3 E GCEG|AGFA G2 dc|]
